X: 23830
T: Little Red
R: barndance
M: 4/4
K: Aminor
[M:7/8]|:A,2E2 DCB,|CA, A,G, A,B,C|B,2 B,A, G,B,D|GD E2 DCB,|
A,E DC DCB,|CA, A,G, A,B,C|B,2 B,A, G,B,D|1 GD E2 DCB,:|2 GD E2 DEG||
|:F2 AF BAG|c2 BA cBA|F2 AF BAG|Bc A2 AGE|
F2 AF BAG|c2 BA Bcd|eA dA cBA|1 GEE DE GE:|2 GEE DC B,C||

